X:135
T:Spithead Fleet
M:6/8
L:1/8
B:Thompson's Compleat Collection of 200 Favourite Country Dances, vol. 1 (London, 1757)
Z:Transcribed and edited by Flynn Titford-Mock, 2007
Z:abc's:AK/Fiddler's Companion
K:Gmin
G/F/|DGA Bcd|cAF "tr"F2A|BGA Bdg|fdB "tr"B2a|bag fdd|fdd ecc|d g2 fdc|BGG G2:|
|:d|gfg def|Bcd "tr"f2d|gfe dcB|gfe d2a|bag fdd|fdd ecc|d g2 fdc|BGG G2:|

